X:1
T:Everywhere, Everywhere, Christmas Tonight!
T:Everywhere, Everywhere, Christmas Tonight!
T:Lewis Henry Redner (1830-1908)
T:Phillips Brooks (1835-1893) 
T:Public Domain Courtesy of the Cyber Hymnal™
T:Public Domain Courtesy of the Cyber Hymnal™
C:Lewis Henry Redner (1830-1908)
Z:Public Domain
Z:Courtesy of the Cyber Hymnal™
%%score ( 1 2 ) ( 3 4 )
L:1/8
Q:1/4=125
M:3/4
K:Ab
V:1 treble 
V:2 treble 
V:3 bass 
V:4 bass 
V:1
 [Ec]3 [DB] [CA]2 | [CE]3 [B,D] [A,C]2 | [CE]2 [DF]2 [DG]2 | [EA]6 | [EB]3 [Ec] [Ed]2 | %5
w: 1.~Chris- tmas in|lands of the|fir tree and|pine,|Christ- mas in|
w: 2.~Christ- mas where|child- ren are|hope- ful and|gay,|Christ- mas where|
w: 3.~See the young|Child who is|Mas- ter of|all,|No place too|
w: 4.~Let ev- ery|heart keep its|Christ- mas with-|in|Pi- ty for|
w: 5.~Stars of the|mid- night which|com- pass us|round|See a strange|
 [Ec]3 [EB] [FA]2 | [GB]2 [_Gc]2 [F=d]2 | [Ee]6 | [Ed]3 [Ee] [Ed]2 | [Ec]2 [Ec]2 [EA]2 | %10
w: lands of the|palm tree and|vine;|Christ- mas where|snow peaks stand|
w: old men are|pa- tient and|gray,|Christ- mas where|peace, like a|
w: great, and no|cot- tage too|small;|An- gels who|wel- come Him|
w: sor- row, and|hat- red for|sin.|Care for the|weak- est, and|
w: glo- ry, and|hear a sweet|sound;|“Look, see the|earth is a-|
 [=Ec]2 [Fc]2 [GB]2 | A6 | [FB]3 [FA] [DF]2 | [CE]2 [CA]2 [Ec]2 | [Fd]2 [Ec]2 [DB]2 | [CA]6 || %16
w: sol- emn and|white,|Christ- mas where|corn fields lie|sun- ny and|bright.|
w: dove in its|flight,|Broods o- ver|brave men in|thick of the|fight.|
w: sing from the|height,|“Ci- ty of|Da- vid, with|roy- al- ty|bright!”|
w: cour- age for|right,|Dread of the|dark- ness, and|love of the|light.|
w: flame with de-|light:|Sons of the|morn- ing, re-|joice at the|sight!”|
"^Refrain" [Ec]3 [EB] [EA]2 | [Ad]3 [Ae] !fermata![Af]2 | [Ee]2 [Fc]2 [GB]2 | A6 |] %20
w: ||||
w: ||||
w: Ev- ery- where,|ev- ery- where,|Christ- mas to-|night!|
w: ||||
w: ||||
V:2
 x6 | x6 | x6 | x6 | x6 | x6 | x6 | x6 | x6 | x6 | x6 | A6 | x6 | x6 | x6 | x6 || x6 | x6 | x6 | %19
 A6 |] %20
V:3
 [A,,E,]3 [A,,E,] [A,,E,]2 | [A,,E,]3 [A,,E,] [A,,E,]2 | [A,,E,]2 [A,,A,]2 [A,,B,]2 | [A,C]6 | %4
 [E,G,]3 [E,A,] [E,C]2 | A,3 [A,D] [F,C]2 | [B,,B,]2 [B,,=A,]2 [B,,_A,]2 | [E,G,]6 | %8
 [E,G,]3 [E,G,] [E,B,]2 | A,2 A,2 [A,C]2 | [C,C]2 [=D,C]2 [=E,C]2 | [F,C]6 | [D,D]3 [D,D] [D,A,]2 | %13
 [E,A,]2 [E,C]2 [E,A,]2 | [E,G,]2 [E,G,]2 [E,G,]2 | [A,,E,A,]6 || A,3 [A,D] [A,C]2 | %17
 [F,A,]3 [E,C] !fermata![D,D]2 | [E,C]2 [E,E]2 [E,D]2 | [A,,E,C]6 |] %20
V:4
 x6 | x6 | x6 | x6 | x6 | A,3 x3 | x6 | x6 | x6 | A,2 A,2 x2 | x6 | x6 | x6 | x6 | x6 | x6 || %16
 A,3 x3 | x6 | x6 | x6 |] %20

